static/rooms/admin/round_table.svg

<svg xmlns:xlink="http://www.w3.org/1999/xlink" height="77" width="101.5" xmlns="http://www.w3.org/2000/svg"><g transform="translate(50.1 74.3)"><use height="77" transform="translate(-50.1 -74.3)" width="101.5" xlink:href="#shape0"/><use height="22.35" transform="translate(3.15 -49.65)" width="30.4" xlink:href="#sprite0"/></g><defs><linearGradient gradientTransform="matrix(.0613 0 0 .0209 .65 -26.75)" gradientUnits="userSpaceOnUse" id="gradient0" spreadMethod="pad" x1="-819.2" x2="819.2"><stop offset="0" stop-color="#691d01"/><stop offset=".463" stop-color="#930"/><stop offset="1" stop-color="#782101"/></linearGradient><linearGradient gradientTransform="matrix(.0036 0 0 .0073 .4 -3.75)" gradientUnits="userSpaceOnUse" id="gradient1" spreadMethod="pad" x1="-819.2" x2="819.2"><stop offset="0" stop-color="#691d01"/><stop offset=".463" stop-color="#930"/><stop offset="1" stop-color="#782101"/></linearGradient><linearGradient gradientTransform="matrix(.0036 0 0 .0085 47.8 -30.55)" gradientUnits="userSpaceOnUse" id="gradient2" spreadMethod="pad" x1="-819.2" x2="819.2"><stop offset="0" stop-color="#691d01"/><stop offset=".463" stop-color="#930"/><stop offset="1" stop-color="#782101"/></linearGradient><linearGradient gradientTransform="matrix(.0036 0 0 .0081 -46.65 -29.15)" gradientUnits="userSpaceOnUse" id="gradient3" spreadMethod="pad" x1="-819.2" x2="819.2"><stop offset="0" stop-color="#691d01"/><stop offset=".463" stop-color="#930"/><stop offset="1" stop-color="#782101"/></linearGradient><g id="shape0"><path d="M-49.55-28.7l-.2-1.65-.05-1.4.25-3.2v6.25" fill="#999" fill-rule="evenodd" transform="translate(50.1 74.3)"/><path d="M-49.55-41.9q.15 2.1.7 4.05Q-46.75-30.1-38.3-24l3.45 2.3q14.7 8.95 35.5 8.95l3.5-.05q9.5-.35 17.7-2.7l1.8-.55 2.25-.75q3.55-1.3 6.8-2.95l3.5-1.95q4.9-3 8.2-6.4 4.05-4.25 5.6-9.05.7-2.35.85-4.8l.05 3.35-.1 1-.05.1-1.2 5.3q-1.35 3.75-4.7 7.3v.05l-.45.45q-3.95 4-10.45 7.7l-1.25.65-1.1.55-.2.1q-2.6 1.25-5.5 2.2l-2.25.7-1.85.5q-7.85 2-17.65 2.3l-.75.05H.5l-3.05-.05Q-12.2-9.95-20.2-12q-5.3-1.3-9.85-3.4l-3.95-2q-2.3-1.3-4.3-2.7-3.1-2.2-5.35-4.6-4.75-5.05-5.75-10.95l-.05-.1-.1-.7v-5.45" fill="url(#gradient0)" fill-rule="evenodd" transform="translate(50.1 74.3)"/><path d="M3.4-1.3V.85Q2.15 2 .75 2.2-.7 2.4-2.55 1V-9.7l3.05.05h2.9v8.35" fill="url(#gradient1)" fill-rule="evenodd" transform="translate(50.1 74.3)"/><path d="M50.75-37.5l.05 12.55-1.65 1.1-1 .25q-1.45.15-3.3-1.2v-.1q3.35-3.55 4.7-7.3l1.2-5.3" fill="url(#gradient2)" fill-rule="evenodd" transform="translate(50.1 74.3)"/><path d="M-47.7-22.7q-.9-.3-1.9-1.05l.05-4.95v-7.05h.1l.05.1q1 5.9 5.75 10.95v.8q-1.25 1.15-2.65 1.35l-1.4-.15" fill="url(#gradient3)" fill-rule="evenodd" transform="translate(50.1 74.3)"/><path d="M49.15-23.85Q45.9-16.2 36-10.2 22.3-1.9 3.4-1.3v-8.35l.75-.05q9.8-.3 17.65-2.3l1.85-.5 2.25-.7q2.9-.95 5.5-2.2l.2-.1 1.1-.55 1.25-.65q6.5-3.7 10.45-7.7l.45-.45v-.05.1q1.85 1.35 3.3 1.2l1-.25M-2.55-1.3q-18.85-.6-32.5-8.9-9.2-5.55-12.65-12.5l1.4.15q1.4-.2 2.65-1.35v-.8q2.25 2.4 5.35 4.6 2 1.4 4.3 2.7l3.95 2q4.55 2.1 9.85 3.4 8 2.05 17.65 2.3v8.4" fill-opacity=".2" fill-rule="evenodd" transform="translate(50.1 74.3)"/><path d="M-49.55-41.9l-.05-1.35q0-12.7 14.75-21.65 12.35-7.5 29.05-8.65l6.45-.25 3.5.1q11.9.4 21.75 3.95 3.3 1.15 6.4 2.7l.4.25q1.8.85 3.5 1.9 4.9 3 8.2 6.45 5.65 5.85 6.4 12.95l.1 2.25-.05 1.3q-.15 2.45-.85 4.8-1.55 4.8-5.6 9.05-3.3 3.4-8.2 6.4l-3.5 1.95q-3.25 1.65-6.8 2.95l-2.25.75-1.8.55q-8.2 2.35-17.7 2.7l-3.5.05q-20.8 0-35.5-8.95L-38.3-24q-8.45-6.1-10.55-13.85-.55-1.95-.7-4.05" fill="url(#gradient4)" fill-rule="evenodd" transform="translate(50.1 74.3)"/><path d="M50.85-41.95l.05-1.3-.1-2.25q-.75-7.1-6.4-12.95-3.3-3.45-8.2-6.45-1.7-1.05-3.5-1.9l-.4-.25q-3.1-1.55-6.4-2.7-9.85-3.55-21.75-3.95l-3.5-.1-6.45.25q-16.7 1.15-29.05 8.65-14.75 8.95-14.75 21.65l.05 1.35q.15 2.1.7 4.05Q-46.75-30.1-38.3-24l3.45 2.3q14.7 8.95 35.5 8.95l3.5-.05q9.5-.35 17.7-2.7l1.8-.55 2.25-.75q3.55-1.3 6.8-2.95l3.5-1.95q4.9-3 8.2-6.4 4.05-4.25 5.6-9.05.7-2.35.85-4.8l.05 3.35-.1 1-.05.1.05 12.55-1.65 1.1M3.4-1.3V.85Q2.15 2 .75 2.2-.7 2.4-2.55 1v-2.3M-47.7-22.7q-.9-.3-1.9-1.05l.05-4.95m0-6.25v-6.95M3.4-1.3v-8.35H.5l-3.05-.05v8.4M3.4-9.65l.75-.05q9.8-.3 17.65-2.3l1.85-.5 2.25-.7q2.9-.95 5.5-2.2l.2-.1 1.1-.55 1.25-.65q6.5-3.7 10.45-7.7l.45-.45v-.05q3.35-3.55 4.7-7.3l1.2-5.3m-5.9 12.6v.1q1.85 1.35 3.3 1.2l1-.25m-92.8-.85q-4.75-5.05-5.75-10.95l-.05-.1m-.1-.7l.1.7m-.1.8v6.25m1.85 6l1.4.15q1.4-.2 2.65-1.35v-.8q2.25 2.4 5.35 4.6 2 1.4 4.3 2.7l3.95 2q4.55 2.1 9.85 3.4 8 2.05 17.65 2.3" fill="none" stroke="#390000" stroke-linecap="round" stroke-linejoin="round" transform="translate(50.1 74.3)"/></g><g id="shape1"><path d="M-.25-10.3l-.15-.4.2-.45.45-.2.45.2.15.2.05.25-.2.5q-.15.2-.45.2l-.45-.2-.05-.1M-2-14.4l.45-.2q.3 0 .45.2l.2.45-.2.5q-.15.2-.45.2l-.45-.2-.2-.5.2-.45" fill-rule="evenodd" transform="translate(19.85 22.65)"/><path d="M7.75-21.1l2.3 1q-.45 2.05-1.5 3.8t-2.7 3.2L5-13.35l-4.15 2.4-.15-.2-.45-.2-.45.2-.2.45.15.4-2 1.15-1-.1-2.15-3.95 2.15 3.95.2.35-6.05 3.4-.75 1.7.25.75.5.45-7.95.3-2.3.05 3.8-8 .7.4.1.05 1.35 1 1.5-.95 6.25-3.9.25.45 7.6-4.6.85.2h.1l.1-.1 1.1-1.5 1.1-2.95 2.3 1.05-.85 2.5q-.9 1.9-2.3 3.05Q6-16.7 6.9-18.6l.85-2.5M-2-14.4l-.2.45.2.5.45.2q.3 0 .45-.2l.2-.5-.2-.45q-.15-.2-.45-.2l-.45.2" fill="#fcb6c4" fill-rule="evenodd" transform="translate(19.85 22.65)"/><path d="M4.35-19.2l-1.1 1.5-.1.1h-.1l-.85-.2-7.6 4.6-.25-.45-6.25 3.9-1.5.95-1.35-1-.1-.05q2.9-3.3 7.65-5.95 5.3-3 9.8-3.35l1.75-.05m-7.6 9.95l1 .1 2-1.15.05.1.45.2q.3 0 .45-.2l.2-.5-.05-.25L5-13.35l.85.25q1.65-1.45 2.7-3.2.25 2.15-2.15 5.9-2.45 3.75-7.95 6.5t-9.8 3.05q-4.35.25-5.7-1.45l7.95-.3-.5-.45-.25-.75.75-1.7 6.05-3.4-.2-.35" fill="#fff" fill-rule="evenodd" transform="translate(19.85 22.65)"/><path d="M7.75-21.1l-.85 2.5q-.9 1.9-2.3 3.05m.85-6.6l-1.1 2.95-1.1 1.5-.1.1h-.1m-8.45 4.4l2.15 3.95m9.1-3.85q1.65-1.45 2.7-3.2 1.05-1.75 1.5-3.8m-5.7.9l-1.75.05q-4.5.35-9.8 3.35-4.75 2.65-7.65 5.95m2.95.1l6.25-3.9.25.45M-17.05-2.3q1.35 1.7 5.7 1.45 4.3-.3 9.8-3.05 5.5-2.75 7.95-6.5 2.4-3.75 2.15-5.9m-24.1 6.05l-3.8 8 2.3-.05 7.95-.3m0-2.9l6.05-3.4-.2-.35" fill="none" stroke="#000" stroke-linecap="round" stroke-linejoin="round" transform="translate(19.85 22.65)"/></g><radialGradient cx="0" cy="0" gradientTransform="translate(-11.75 -52.75) scale(.0782)" gradientUnits="userSpaceOnUse" id="gradient4" r="819.2" spreadMethod="pad"><stop offset="0" stop-color="#a54201"/><stop offset=".204" stop-color="#98420a"/><stop offset=".463" stop-color="#963100"/><stop offset="1" stop-color="#611b01"/></radialGradient><use height="22.35" width="30.4" xlink:href="#shape1" id="sprite0"/></defs></svg>

<?xml version="1.0" encoding="UTF-8" standalone="no"?>
<svg xmlns:xlink="http://www.w3.org/1999/xlink" height="77.0px" width="101.5px" xmlns="http://www.w3.org/2000/svg">
  <g transform="matrix(1.0, 0.0, 0.0, 1.0, 50.1, 74.3)">
    <use height="77.0" transform="matrix(1.0, 0.0, 0.0, 1.0, -50.1, -74.3)" width="101.5" xlink:href="#shape0"/>
    <use height="22.35" transform="matrix(1.0, 0.0, 0.0, 1.0, 3.15, -49.65)" width="30.4" xlink:href="#sprite0"/>
  </g>
  <defs>
    <g id="shape0" transform="matrix(1.0, 0.0, 0.0, 1.0, 50.1, 74.3)">
      <path d="M-49.55 -28.7 L-49.75 -30.35 -49.8 -31.75 -49.55 -34.95 -49.55 -28.7" fill="#999999" fill-rule="evenodd" stroke="none"/>
      <path d="M-49.55 -41.9 Q-49.4 -39.8 -48.85 -37.85 -46.75 -30.1 -38.3 -24.0 L-34.85 -21.7 Q-20.15 -12.75 0.65 -12.75 L4.15 -12.8 Q13.65 -13.15 21.85 -15.5 L23.65 -16.05 25.9 -16.8 Q29.45 -18.1 32.7 -19.75 L36.2 -21.7 Q41.1 -24.7 44.4 -28.1 48.45 -32.35 50.0 -37.15 50.7 -39.5 50.85 -41.95 L50.9 -38.6 50.8 -37.6 50.75 -37.5 49.55 -32.2 Q48.2 -28.45 44.85 -24.9 L44.85 -24.85 44.4 -24.4 Q40.45 -20.4 33.95 -16.7 L32.7 -16.05 31.6 -15.5 31.4 -15.4 Q28.8 -14.15 25.9 -13.2 L23.65 -12.5 21.8 -12.0 Q13.95 -10.0 4.15 -9.7 L3.4 -9.65 0.5 -9.65 -2.55 -9.7 Q-12.2 -9.95 -20.2 -12.0 -25.5 -13.3 -30.05 -15.4 L-34.0 -17.4 Q-36.3 -18.7 -38.3 -20.1 -41.4 -22.3 -43.65 -24.7 -48.4 -29.75 -49.4 -35.65 L-49.45 -35.75 -49.55 -36.45 -49.55 -36.75 -49.55 -41.9" fill="url(#gradient0)" fill-rule="evenodd" stroke="none"/>
      <path d="M3.4 -1.3 L3.4 0.85 Q2.15 2.0 0.75 2.2 -0.7 2.4 -2.55 1.0 L-2.55 -1.3 -2.55 -9.7 0.5 -9.65 3.4 -9.65 3.4 -1.3" fill="url(#gradient1)" fill-rule="evenodd" stroke="none"/>
      <path d="M50.75 -37.5 L50.8 -24.95 49.15 -23.85 48.15 -23.6 Q46.7 -23.45 44.85 -24.8 L44.85 -24.9 Q48.2 -28.45 49.55 -32.2 L50.75 -37.5" fill="url(#gradient2)" fill-rule="evenodd" stroke="none"/>
      <path d="M-47.7 -22.7 Q-48.6 -23.0 -49.6 -23.75 L-49.55 -28.7 -49.55 -34.95 -49.55 -35.75 -49.45 -35.75 -49.4 -35.65 Q-48.4 -29.75 -43.65 -24.7 L-43.65 -23.9 Q-44.9 -22.75 -46.3 -22.55 L-47.7 -22.7" fill="url(#gradient3)" fill-rule="evenodd" stroke="none"/>
      <path d="M49.15 -23.85 Q45.9 -16.2 36.0 -10.2 22.3 -1.9 3.4 -1.3 L3.4 -9.65 4.15 -9.7 Q13.95 -10.0 21.8 -12.0 L23.65 -12.5 25.9 -13.2 Q28.8 -14.15 31.4 -15.4 L31.6 -15.5 32.7 -16.05 33.95 -16.7 Q40.45 -20.4 44.4 -24.4 L44.85 -24.85 44.85 -24.9 44.85 -24.8 Q46.7 -23.45 48.15 -23.6 L49.15 -23.85 M-2.55 -1.3 Q-21.4 -1.9 -35.05 -10.2 -44.25 -15.75 -47.7 -22.7 L-46.3 -22.55 Q-44.9 -22.75 -43.65 -23.9 L-43.65 -24.7 Q-41.4 -22.3 -38.3 -20.1 -36.3 -18.7 -34.0 -17.4 L-30.05 -15.4 Q-25.5 -13.3 -20.2 -12.0 -12.2 -9.95 -2.55 -9.7 L-2.55 -1.3" fill="#000000" fill-opacity="0.2" fill-rule="evenodd" stroke="none"/>
      <path d="M-49.55 -41.9 L-49.6 -43.25 Q-49.6 -55.95 -34.85 -64.9 -22.5 -72.4 -5.8 -73.55 L0.65 -73.8 4.15 -73.7 Q16.05 -73.3 25.9 -69.75 29.2 -68.6 32.3 -67.05 L32.7 -66.8 Q34.5 -65.95 36.2 -64.9 41.1 -61.9 44.4 -58.45 50.05 -52.6 50.8 -45.5 L50.9 -43.25 50.85 -41.95 Q50.7 -39.5 50.0 -37.15 48.45 -32.35 44.4 -28.1 41.1 -24.7 36.2 -21.7 L32.7 -19.75 Q29.45 -18.1 25.9 -16.8 L23.65 -16.05 21.85 -15.5 Q13.65 -13.15 4.15 -12.8 L0.65 -12.75 Q-20.15 -12.75 -34.85 -21.7 L-38.3 -24.0 Q-46.75 -30.1 -48.85 -37.85 -49.4 -39.8 -49.55 -41.9" fill="url(#gradient4)" fill-rule="evenodd" stroke="none"/>
      <path d="M50.85 -41.95 L50.9 -43.25 50.8 -45.5 Q50.05 -52.6 44.4 -58.45 41.1 -61.9 36.2 -64.9 34.5 -65.95 32.7 -66.8 L32.3 -67.05 Q29.2 -68.6 25.9 -69.75 16.05 -73.3 4.15 -73.7 L0.65 -73.8 -5.8 -73.55 Q-22.5 -72.4 -34.85 -64.9 -49.6 -55.95 -49.6 -43.25 L-49.55 -41.9 Q-49.4 -39.8 -48.85 -37.85 -46.75 -30.1 -38.3 -24.0 L-34.85 -21.7 Q-20.15 -12.75 0.65 -12.75 L4.15 -12.8 Q13.65 -13.15 21.85 -15.5 L23.65 -16.05 25.9 -16.8 Q29.45 -18.1 32.7 -19.75 L36.2 -21.7 Q41.1 -24.7 44.4 -28.1 48.45 -32.35 50.0 -37.15 50.7 -39.5 50.85 -41.95 L50.9 -38.6 50.8 -37.6 50.75 -37.5 50.8 -24.95 49.15 -23.85 M3.4 -1.3 L3.4 0.85 Q2.15 2.0 0.75 2.2 -0.7 2.4 -2.55 1.0 L-2.55 -1.3 M-47.7 -22.7 Q-48.6 -23.0 -49.6 -23.75 L-49.55 -28.7 M-49.55 -34.95 L-49.55 -35.75 -49.55 -36.45 -49.55 -36.75 -49.55 -41.9 M3.4 -1.3 L3.4 -9.65 0.5 -9.65 -2.55 -9.7 -2.55 -1.3 M3.4 -9.65 L4.15 -9.7 Q13.95 -10.0 21.8 -12.0 L23.65 -12.5 25.9 -13.2 Q28.8 -14.15 31.4 -15.4 L31.6 -15.5 32.7 -16.05 33.95 -16.7 Q40.45 -20.4 44.4 -24.4 L44.85 -24.85 44.85 -24.9 Q48.2 -28.45 49.55 -32.2 L50.75 -37.5 M44.85 -24.9 L44.85 -24.8 Q46.7 -23.45 48.15 -23.6 L49.15 -23.85 M-43.65 -24.7 Q-48.4 -29.75 -49.4 -35.65 L-49.45 -35.75 M-49.55 -36.45 L-49.45 -35.75 M-49.55 -34.95 L-49.55 -28.7 M-47.7 -22.7 L-46.3 -22.55 Q-44.9 -22.75 -43.65 -23.9 L-43.65 -24.7 Q-41.4 -22.3 -38.3 -20.1 -36.3 -18.7 -34.0 -17.4 L-30.05 -15.4 Q-25.5 -13.3 -20.2 -12.0 -12.2 -9.95 -2.55 -9.7" fill="none" stroke="#390000" stroke-linecap="round" stroke-linejoin="round" stroke-width="1.0"/>
    </g>
    <linearGradient gradientTransform="matrix(0.0613, 0.0, 0.0, 0.0209, 0.65, -26.75)" gradientUnits="userSpaceOnUse" id="gradient0" spreadMethod="pad" x1="-819.2" x2="819.2">
      <stop offset="0.0" stop-color="#691d01"/>
      <stop offset="0.4627450980392157" stop-color="#993300"/>
      <stop offset="1.0" stop-color="#782101"/>
    </linearGradient>
    <linearGradient gradientTransform="matrix(0.0036, 0.0, 0.0, 0.0073, 0.4, -3.75)" gradientUnits="userSpaceOnUse" id="gradient1" spreadMethod="pad" x1="-819.2" x2="819.2">
      <stop offset="0.0" stop-color="#691d01"/>
      <stop offset="0.4627450980392157" stop-color="#993300"/>
      <stop offset="1.0" stop-color="#782101"/>
    </linearGradient>
    <linearGradient gradientTransform="matrix(0.0036, 0.0, 0.0, 0.0085, 47.8, -30.55)" gradientUnits="userSpaceOnUse" id="gradient2" spreadMethod="pad" x1="-819.2" x2="819.2">
      <stop offset="0.0" stop-color="#691d01"/>
      <stop offset="0.4627450980392157" stop-color="#993300"/>
      <stop offset="1.0" stop-color="#782101"/>
    </linearGradient>
    <linearGradient gradientTransform="matrix(0.0036, 0.0, 0.0, 0.0081, -46.65, -29.15)" gradientUnits="userSpaceOnUse" id="gradient3" spreadMethod="pad" x1="-819.2" x2="819.2">
      <stop offset="0.0" stop-color="#691d01"/>
      <stop offset="0.4627450980392157" stop-color="#993300"/>
      <stop offset="1.0" stop-color="#782101"/>
    </linearGradient>
    <radialGradient cx="0" cy="0" gradientTransform="matrix(0.0782, 0.0, 0.0, 0.0782, -11.75, -52.75)" gradientUnits="userSpaceOnUse" id="gradient4" r="819.2" spreadMethod="pad">
      <stop offset="0.0" stop-color="#a54201"/>
      <stop offset="0.20392156862745098" stop-color="#98420a"/>
      <stop offset="0.4627450980392157" stop-color="#963100"/>
      <stop offset="1.0" stop-color="#611b01"/>
    </radialGradient>
    <g id="sprite0" transform="matrix(1.0, 0.0, 0.0, 1.0, 19.85, 22.65)">
      <use height="22.35" transform="matrix(1.0, 0.0, 0.0, 1.0, -19.85, -22.65)" width="30.4" xlink:href="#shape1"/>
    </g>
    <g id="shape1" transform="matrix(1.0, 0.0, 0.0, 1.0, 19.85, 22.65)">
      <path d="M-0.25 -10.3 L-0.4 -10.7 -0.2 -11.15 0.25 -11.35 0.7 -11.15 0.85 -10.95 0.9 -10.7 0.7 -10.2 Q0.55 -10.0 0.25 -10.0 L-0.2 -10.2 -0.25 -10.3 M-2.0 -14.4 L-1.55 -14.6 Q-1.25 -14.6 -1.1 -14.4 L-0.9 -13.95 -1.1 -13.45 Q-1.25 -13.25 -1.55 -13.25 L-2.0 -13.45 -2.2 -13.95 -2.0 -14.4" fill="#000000" fill-rule="evenodd" stroke="none"/>
      <path d="M7.75 -21.1 L10.05 -20.1 Q9.6 -18.05 8.55 -16.3 7.5 -14.55 5.85 -13.1 L5.0 -13.35 0.85 -10.95 0.7 -11.15 0.25 -11.35 -0.2 -11.15 -0.4 -10.7 -0.25 -10.3 -2.25 -9.15 -3.25 -9.25 -5.4 -13.2 -3.25 -9.25 -3.05 -8.9 -9.1 -5.5 -9.85 -3.8 -9.6 -3.05 -9.1 -2.6 -17.05 -2.3 -19.35 -2.25 -15.55 -10.25 -14.85 -9.85 -14.75 -9.8 -13.4 -8.8 -11.9 -9.75 -5.65 -13.65 -5.4 -13.2 2.2 -17.8 3.05 -17.6 3.15 -17.6 3.25 -17.7 4.35 -19.2 5.45 -22.15 7.75 -21.1 6.9 -18.6 Q6.0 -16.7 4.6 -15.55 6.0 -16.7 6.9 -18.6 L7.75 -21.1 M-2.0 -14.4 L-2.2 -13.95 -2.0 -13.45 -1.55 -13.25 Q-1.25 -13.25 -1.1 -13.45 L-0.9 -13.95 -1.1 -14.4 Q-1.25 -14.6 -1.55 -14.6 L-2.0 -14.4" fill="#fcb6c4" fill-rule="evenodd" stroke="none"/>
      <path d="M4.35 -19.2 L3.25 -17.7 3.15 -17.6 3.05 -17.6 2.2 -17.8 -5.4 -13.2 -5.65 -13.65 -11.9 -9.75 -13.4 -8.8 -14.75 -9.8 -14.85 -9.85 Q-11.95 -13.15 -7.2 -15.8 -1.9 -18.8 2.6 -19.15 L4.35 -19.2 M-3.25 -9.25 L-2.25 -9.15 -0.25 -10.3 -0.2 -10.2 0.25 -10.0 Q0.55 -10.0 0.7 -10.2 L0.9 -10.7 0.85 -10.95 5.0 -13.35 5.85 -13.1 Q7.5 -14.55 8.55 -16.3 8.8 -14.15 6.4 -10.4 3.95 -6.65 -1.55 -3.9 -7.05 -1.15 -11.35 -0.85 -15.7 -0.6 -17.05 -2.3 L-9.1 -2.6 -9.6 -3.05 -9.85 -3.8 -9.1 -5.5 -3.05 -8.9 -3.25 -9.25" fill="#ffffff" fill-rule="evenodd" stroke="none"/>
      <path d="M7.75 -21.1 L6.9 -18.6 Q6.0 -16.7 4.6 -15.55 M5.45 -22.15 L4.35 -19.2 3.25 -17.7 3.15 -17.6 3.05 -17.6 M-5.4 -13.2 L-3.25 -9.25 M5.85 -13.1 Q7.5 -14.55 8.55 -16.3 9.6 -18.05 10.05 -20.1 M4.35 -19.2 L2.6 -19.15 Q-1.9 -18.8 -7.2 -15.8 -11.95 -13.15 -14.85 -9.85 M-11.9 -9.75 L-5.65 -13.65 -5.4 -13.2 M-17.05 -2.3 Q-15.7 -0.6 -11.35 -0.85 -7.05 -1.15 -1.55 -3.9 3.95 -6.65 6.4 -10.4 8.8 -14.15 8.55 -16.3 M-15.55 -10.25 L-19.35 -2.25 -17.05 -2.3 -9.1 -2.6 M-9.1 -5.5 L-3.05 -8.9 -3.25 -9.25" fill="none" stroke="#000000" stroke-linecap="round" stroke-linejoin="round" stroke-width="1.0"/>
    </g>
  </defs>
</svg>
